!!!COM: Palestrina, Giovanni Perluigi da
!!!OPR: Missa In festis Apostolorum (I)
!!!OMD: Credo
!!!OTL: Genitum
**kern	**kern	**kern	**kern	**kern
*Ibass	*Itenor	*Itenor	*Icalto	*Icant
!Bassus	!Tenor 2	!Tenor 1	!Altus	!Cantus
*clefF4	*clefGv2	*clefGv2	*clefG2	*clefG2
*k[]	*k[]	*k[]	*k[]	*k[]
*D:dor	*D:dor	*D:dor	*D:dor	*D:dor
*M4/2	*M4/2	*M4/2	*M4/2	*M4/2
=39	=39	=39	=39	=39
1.D	0r	1r	0r	0r
.	.	[1A	.	.
2C	.	.	.	.
=40	=40	=40	=40	=40
2D	0r	2A]	0r	0r
2E	.	2G	.	.
2F	.	2A	.	.
4E	.	2B	.	.
4D	.	.	.	.
=41	=41	=41	=41	=41
2E	2r	2c	0r	0r
2D	1D	4B	.	.
.	.	4A	.	.
2GG	.	2B	.	.
2AA	2C	[2A	.	.
=42	=42	=42	=42	=42
1BB-	1D	2A]	2r	1r
.	.	2G	1d	.
1AA	2E	1A	.	2r
.	[2F	.	2c	[2a
=43	=43	=43	=43	=43
0r	2F]	0r	2d	2a]
.	2E	.	2e	2g
.	1D	.	2f	2a
.	.	.	4e	2b
.	.	.	4d	.
=44	=44	=44	=44	=44
0r	4C	0r	1e	2cc
.	4D	.	.	.
.	4E	.	.	4b
.	4F	.	.	4a
.	2G	.	2d	2b
.	2A	.	2c	[2a
=45	=45	=45	=45	=45
0r	2D	1d	1B-	2a]
.	1d	.	.	2g
.	.	1e	1A	1a
.	2c	.	.	.
=46	=46	=46	=46	=46
1D	4B	1d	0r	0r
.	4A	.	.	.
.	1A	.	.	.
1E	.	2c	.	.
.	2G	[2B	.	.
=47	=47	=47	=47	=47
2D	2F	2B]	0r	0r
2C	2E	2A	.	.
2BB	2D	2G#	.	.
2AA	2C	2A	.	.
=48	=48	=48	=48	=48
2GG	0D	2B	1r	0r
2AA	.	1A	.	.
1BB	.	.	2r	.
.	.	2G#	[2d	.
=49	=49	=49	=49	=49
1AA	2E	1A	2d]	1e
.	2A	.	2c	.
1r	2B	1r	2d	1g
.	[2c	.	2e	.
=50	=50	=50	=50	=50
0r	4c]	0r	2A	1a
.	4B	.	.	.
.	4A	.	2.c	.
.	4G	.	.	.
.	2F	.	.	2a
.	.	.	4d	.
.	2G	.	2B	2d
=51	=51	=51	=51	=51
0r	1D	0r	2A	1f
.	.	.	2.d	.
.	2A	.	.	1e
.	.	.	4c#	.
.	2A	.	4c#	.
.	.	.	8d	.
.	.	.	8e	.
=52	=52	=52	=52	=52
2r	2.D	1r	1.f	4d
.	.	.	.	4e
1D	.	.	.	4f
.	4E	.	.	4g
.	4F	2r	.	4a
.	4G	.	.	4b
2C	2A	2E	2e	4cc
.	.	.	.	4a
=53	=53	=53	=53	=53
2BB	2r	1G	1d	4b
.	.	.	.	4cc
2BB	2D	.	.	1dd
1AA	1E	1A	2r	.
.	.	.	[2a	2cc#
=54	=54	=54	=54	=54
0D	2.F	2A	4a]	1dd
.	.	.	4g	.
.	.	2D	2.f	.
.	4G	.	.	.
.	1A	1F	.	4d
.	.	.	4e	4e
.	.	.	[2d	4f
.	.	.	.	4g
=55	=55	=55	=55	=55
0AA	1.A	0E	2d]	1a
.	.	.	4c#	.
.	.	.	4B	.
.	.	.	1c#	1a
.	2E	.	.	.
=56	=56	=56	=56	=56
[0D	[0F#	[0D	[0d	[0a
=57	=57	=57	=57	=57
0D]	0F#]	0D]	0d]	0a]
*-	*-	*-	*-	*-
!!!CDT: 1525/^1526/-1594/2/2
!!!OCY: Italia
!!!AGN: Mass (Paraphrase)
!!!AST: renaissance, vocal
!!!ASW: Gregorian Mass
!!!PWK: Masses, Book Mantuan II
!!!RNB: Cadence finals: A,E
!!!YOR: Le Opere Complete, v. 19, p. 43
!!!YOO: Rome, Italy: Fratelli Scalera
!!!END: 1992//
!!!EED: John Miller
!!!YEC: Copyright 2000, John Miller
!!!YEN: United States of America
!!!YEM: Rights to all derivative electronic formats reserved.
!!!YEM: Refer to licensing agreement for further details.
!!!YEM: This file must be accompanied by the licensing agreement.
!!!YEM: A copy of the licensing agreement may be found at http://www.music-cog.ohio-state.edu/HumdrumDatabases/Palestrina/license.txt
!!!EMD: converted to Humdrum by Bret Aarden
